_icons/SVG/543-venipede.svg

<svg xmlns="http://www.w3.org/2000/svg" viewBox="0 0 32 32"><title>543-venipede</title><path d="M2.958,27.62035c.55764,2.85791,2.246,3.211,4.07255,3.25809a4.89872,4.89872,0,0,1,2.22631-4.07256C6.27491,27.86787,4.01853,28.27983,2.958,27.62035Z" style="fill:#434c4b"/><path d="M4.36973,13.71935c-.063.04538-.11321.09549-.17468.14144a5.49388,5.49388,0,0,1,2.12439,5.48735C5.83873,22.32356,3.397,24.40405.86575,23.99505A3.94066,3.94066,0,0,1,.214,23.809,5.60346,5.60346,0,0,0,2.958,27.62035c1.06057.65948,3.317.24752,6.29886-.81447a5.38472,5.38472,0,0,1-.65158-6.63029v-.02272a8.61485,8.61485,0,0,1,5.32143-7.38378c-.01574-1.86283.75532-3.87465,2.04061-6.27176V1.12156C11.10306,1.12156,7.02254,5.66374,4.36973,13.71935Z" style="fill:#c84054"/><path d="M4.19505,13.86079c-.31873.23827-.60972.48656-.88844.73888a4.78474,4.78474,0,0,1,1.56627,4.51479C4.46056,21.66655,2.36624,23.451.19505,23.10027c-.04453-.0072-.08356-.02753-.12746-.03642.03931.25359.08561.50371.14645.74516a3.94066,3.94066,0,0,0,.65171.186c2.53127.409,4.973-1.67149,5.45369-4.64691A5.49388,5.49388,0,0,0,4.19505,13.86079Z" style="fill:#505957"/><path d="M4.87288,19.11446a4.78474,4.78474,0,0,0-1.56627-4.51479,9.44068,9.44068,0,0,0-3.239,8.46418c.0439.00889.08293.02922.12746.03642C2.36624,23.451,4.46056,21.66655,4.87288,19.11446Z" style="fill:#c84054"/><path d="M13.92667,12.76909a8.61485,8.61485,0,0,0-5.32143,7.38378v.02272c1.15826-2.082,3.53927-4.15929,7.362-5.83459V6.49733C14.682,8.89444,13.91093,10.90626,13.92667,12.76909Z" style="fill:#505957"/><path d="M8.26633,25.36356l3.16252.68206,4.53843,4.34406V14.341C8.8138,17.476,6.65765,22.01683,8.26633,25.36356Z" style="fill:#d84459"/><path d="M15.96728,30.38968l-4.53843-4.34406-3.16252-.68206a5.75237,5.75237,0,0,0,.99049,1.44232C10.53667,29.21943,13.81812,30.38968,15.96728,30.38968Z" style="fill:#434c4b"/><path d="M9.77267,19.421c-1.16347,0-2.15163,1.12966-2.55,2.71767a8.25627,8.25627,0,0,0,5.29221,1.541C12.5149,21.32764,11.28713,19.421,9.77267,19.421Z" style="fill:#e85160"/><path d="M7.03051,23.67964c0,2.352,1.2277,4.25874,2.74216,4.25874s2.74223-1.90673,2.74223-4.25874a8.25627,8.25627,0,0,1-5.29221-1.541A6.32828,6.32828,0,0,0,7.03051,23.67964Z" style="fill:#ffd96c"/><path d="M8.26633,24.36234c0,1.22954.635,2.22631,1.41833,2.22631s1.4184-.99677,1.4184-2.22631a3.34551,3.34551,0,0,0-.09365-.77678,8.44061,8.44061,0,0,1-2.409-.64289A3.04155,3.04155,0,0,0,8.26633,24.36234Z" style="fill:#373f3f"/><circle cx="9.67185" cy="24.31187" r="0.63223" style="fill:#edeeee"/><path d="M7.92579,10.13618C8.517,9.34945,3.589,4.30476,2.04144,3.979c-.62229,0,1.86826,3.74373,4.66992,7.48745l.00007-.00014C6.74037,10.99469,7.08973,10.54716,7.92579,10.13618Z" style="fill:#e85160"/><path d="M11.67474,13.71928c-1.31042-2.11247-2.95721-3.97014-3.74895-3.5831-.83606.411-1.18542.85851-1.21436,1.33011l-.00007.00014c.95619,1.27775,1.94675,2.55167,2.864,3.68057C10.18336,14.03159,10.89655,13.65075,11.67474,13.71928Z" style="fill:#5c6664"/><path d="M11.67474,13.71928c-.77819-.06853-1.49138.31231-2.09933,1.42772,1.7703,2.17859,3.2626,3.80661,3.67251,3.80661C14.09627,18.5389,13.07882,15.98264,11.67474,13.71928Z" style="fill:#e85160"/><path d="M28.97661,27.62035c-.55764,2.85791-2.246,3.211-4.07255,3.25809a4.89874,4.89874,0,0,0-2.22631-4.07256C25.65966,27.86787,27.916,28.27983,28.97661,27.62035Z" style="fill:#373f3f"/><path d="M27.56484,13.71935c.063.04538.11321.09549.17468.14144a5.49388,5.49388,0,0,0-2.12439,5.48735c.4807,2.97542,2.92241,5.05591,5.45369,4.64691a3.94066,3.94066,0,0,0,.65171-.186,5.60349,5.60349,0,0,1-2.74392,3.81134c-1.06058.65948-3.317.24752-6.29886-.81447a5.38471,5.38471,0,0,0,.65157-6.63029v-.02272a8.61484,8.61484,0,0,0-5.32142-7.38378c.01574-1.86283-.75532-3.87465-2.04062-6.27176V1.12156C20.83151,1.12156,24.912,5.66374,27.56484,13.71935Z" style="fill:#b93d4f"/><path d="M27.73952,13.86079c.31873.23827.60972.48656.88843.73888a4.78473,4.78473,0,0,0-1.56626,4.51479c.41232,2.55209,2.50664,4.33658,4.67783,3.98581.04453-.0072.08356-.02753.12746-.03642-.03931.25359-.08561.50371-.14645.74516a3.94066,3.94066,0,0,1-.65171.186c-2.53128.409-4.973-1.67149-5.45369-4.64691A5.49388,5.49388,0,0,1,27.73952,13.86079Z" style="fill:#434c4b"/><path d="M27.06169,19.11446A4.78473,4.78473,0,0,1,28.628,14.59967a9.44066,9.44066,0,0,1,3.239,8.46418c-.0439.00889-.08293.02922-.12746.03642C29.56833,23.451,27.474,21.66655,27.06169,19.11446Z" style="fill:#b93d4f"/><path d="M18.0079,12.76909a8.61484,8.61484,0,0,1,5.32142,7.38378v.02272c-1.15825-2.082-3.53926-4.15929-7.362-5.83459V6.49733C17.25258,8.89444,18.02364,10.90626,18.0079,12.76909Z" style="fill:#434c4b"/><path d="M23.66824,25.36356l-3.16252.68206-4.53844,4.34406V14.341C23.12077,17.476,25.27692,22.01683,23.66824,25.36356Z" style="fill:#c84054"/><path d="M15.96728,30.38968l4.53844-4.34406,3.16252-.68206a5.75237,5.75237,0,0,1-.99049,1.44232C21.39789,29.21943,18.11645,30.38968,15.96728,30.38968Z" style="fill:#373f3f"/><path d="M22.1619,19.421c1.16347,0,2.15163,1.12966,2.55,2.71767a8.25622,8.25622,0,0,1-5.2922,1.541C19.41967,21.32764,20.64744,19.421,22.1619,19.421Z" style="fill:#d84459"/><path d="M24.90406,23.67964c0,2.352-1.2277,4.25874-2.74216,4.25874s-2.74223-1.90673-2.74223-4.25874a8.25622,8.25622,0,0,0,5.2922-1.541A6.32779,6.32779,0,0,1,24.90406,23.67964Z" style="fill:#ffd04d"/><path d="M23.66824,24.36234c0,1.22954-.635,2.22631-1.41833,2.22631s-1.4184-.99677-1.4184-2.22631a3.34551,3.34551,0,0,1,.09365-.77678,8.44046,8.44046,0,0,0,2.409-.64289A3.04143,3.04143,0,0,1,23.66824,24.36234Z" style="fill:#2b3332"/><circle cx="22.26272" cy="24.31187" r="0.63223" style="fill:#e3e5e5"/><path d="M24.00878,10.13618c-.59123-.78673,4.33679-5.83142,5.88435-6.1572.62229,0-1.86826,3.74373-4.66992,7.48745l-.00007-.00014C25.1942,10.99469,24.84484,10.54716,24.00878,10.13618Z" style="fill:#d84459"/><path d="M20.25983,13.71928c1.31041-2.11247,2.95721-3.97014,3.749-3.5831.83606.411,1.18542.85851,1.21436,1.33011l.00007.00014c-.95619,1.27775-1.94675,2.55167-2.86405,3.68057C21.75121,14.03159,21.038,13.65075,20.25983,13.71928Z" style="fill:#505957"/><path d="M20.25983,13.71928c.77819-.06853,1.49138.31231,2.09933,1.42772-1.7703,2.17859-3.2626,3.80661-3.67251,3.80661C17.8383,18.5389,18.85575,15.98264,20.25983,13.71928Z" style="fill:#d84459"/></svg>

<svg xmlns="http://www.w3.org/2000/svg" viewBox="0 0 32 32"><path d="M2.958 27.62c.558 2.858 2.246 3.211 4.073 3.258a4.899 4.899 0 012.226-4.072c-2.982 1.062-5.238 1.474-6.299.814z" fill="#434c4b"/><path d="M4.37 13.72c-.063.045-.113.095-.175.14a5.494 5.494 0 012.124 5.488c-.48 2.976-2.922 5.056-5.453 4.647a3.94 3.94 0 01-.652-.186 5.603 5.603 0 002.744 3.811c1.06.66 3.317.248 6.299-.814a5.385 5.385 0 01-.652-6.63v-.023a8.615 8.615 0 015.322-7.384c-.016-1.863.755-3.875 2.04-6.272V1.122c-4.864 0-8.944 4.542-11.597 12.597z" fill="#c84054"/><path d="M4.195 13.86c-.319.24-.61.487-.888.74a4.785 4.785 0 011.566 4.514C4.46 21.667 2.366 23.451.195 23.1c-.044-.007-.084-.027-.127-.036.039.253.085.504.146.745a3.94 3.94 0 00.652.186c2.531.409 4.973-1.671 5.453-4.647a5.494 5.494 0 00-2.124-5.487z" fill="#505957"/><path d="M4.873 19.114A4.785 4.785 0 003.307 14.6a9.44 9.44 0 00-3.24 8.464c.045.009.084.03.128.036 2.171.351 4.266-1.433 4.678-3.986z" fill="#c84054"/><path d="M13.927 12.77a8.615 8.615 0 00-5.322 7.383v.023c1.158-2.082 3.54-4.16 7.362-5.835V6.497c-1.285 2.397-2.056 4.41-2.04 6.272z" fill="#505957"/><path d="M8.266 25.364l3.163.682 4.538 4.344V14.34c-7.153 3.135-9.31 7.676-7.7 11.023z" fill="#d84459"/><path d="M15.967 30.39l-4.538-4.344-3.163-.682a5.752 5.752 0 00.99 1.442c1.28 2.413 4.562 3.584 6.711 3.584z" fill="#434c4b"/><path d="M9.773 19.421c-1.164 0-2.152 1.13-2.55 2.718a8.256 8.256 0 005.292 1.54c0-2.351-1.228-4.258-2.742-4.258z" fill="#e85160"/><path d="M7.03 23.68c0 2.352 1.228 4.258 2.743 4.258s2.742-1.906 2.742-4.258a8.256 8.256 0 01-5.292-1.541 6.328 6.328 0 00-.192 1.54z" fill="#ffd96c"/><path d="M8.266 24.362c0 1.23.635 2.227 1.419 2.227s1.418-.997 1.418-2.227a3.346 3.346 0 00-.094-.776 8.44 8.44 0 01-2.409-.643 3.042 3.042 0 00-.334 1.42z" fill="#373f3f"/><circle cx="9.672" cy="24.312" r=".632" fill="#edeeee"/><path d="M7.926 10.136C8.517 9.35 3.589 4.305 2.04 3.98c-.622 0 1.869 3.744 4.67 7.487.03-.471.379-.919 1.215-1.33z" fill="#e85160"/><path d="M11.675 13.72c-1.31-2.113-2.957-3.97-3.75-3.584-.835.411-1.185.859-1.214 1.33a119.425 119.425 0 002.864 3.681c.608-1.115 1.322-1.496 2.1-1.428z" fill="#5c6664"/><path d="M11.675 13.72c-.778-.07-1.492.312-2.1 1.427 1.77 2.179 3.263 3.807 3.673 3.807.848-.415-.17-2.971-1.573-5.235z" fill="#e85160"/><path d="M28.977 27.62c-.558 2.858-2.246 3.211-4.073 3.258a4.899 4.899 0 00-2.226-4.072c2.982 1.062 5.238 1.474 6.299.814z" fill="#373f3f"/><path d="M27.565 13.72c.063.045.113.095.175.14a5.494 5.494 0 00-2.125 5.488c.48 2.976 2.923 5.056 5.454 4.647a3.94 3.94 0 00.652-.186 5.603 5.603 0 01-2.744 3.811c-1.061.66-3.317.248-6.3-.814a5.385 5.385 0 00.652-6.63v-.023a8.615 8.615 0 00-5.321-7.384c.016-1.863-.755-3.875-2.04-6.272V1.122c4.864 0 8.944 4.542 11.597 12.597z" fill="#b93d4f"/><path d="M27.74 13.86c.318.24.61.487.888.74a4.785 4.785 0 00-1.566 4.514c.412 2.553 2.506 4.337 4.678 3.986.044-.007.083-.027.127-.036-.04.253-.086.504-.146.745a3.94 3.94 0 01-.652.186c-2.531.409-4.973-1.671-5.454-4.647a5.494 5.494 0 012.125-5.487z" fill="#434c4b"/><path d="M27.062 19.114a4.785 4.785 0 011.566-4.514 9.44 9.44 0 013.239 8.464c-.044.009-.083.03-.127.036-2.172.351-4.266-1.433-4.678-3.986z" fill="#b93d4f"/><path d="M18.008 12.77a8.615 8.615 0 015.321 7.383v.023c-1.158-2.082-3.539-4.16-7.362-5.835V6.497c1.286 2.397 2.057 4.41 2.04 6.272z" fill="#434c4b"/><path d="M23.668 25.364l-3.162.682-4.539 4.344V14.34c7.154 3.135 9.31 7.676 7.701 11.023z" fill="#c84054"/><path d="M15.967 30.39l4.539-4.344 3.162-.682a5.752 5.752 0 01-.99 1.442c-1.28 2.413-4.562 3.584-6.71 3.584z" fill="#373f3f"/><path d="M22.162 19.421c1.163 0 2.152 1.13 2.55 2.718a8.256 8.256 0 01-5.292 1.54c0-2.351 1.227-4.258 2.742-4.258z" fill="#d84459"/><path d="M24.904 23.68c0 2.352-1.228 4.258-2.742 4.258s-2.742-1.906-2.742-4.258a8.256 8.256 0 005.292-1.541 6.328 6.328 0 01.192 1.54z" fill="#ffd04d"/><path d="M23.668 24.362c0 1.23-.635 2.227-1.418 2.227s-1.418-.997-1.418-2.227a3.346 3.346 0 01.093-.776 8.44 8.44 0 002.41-.643 3.041 3.041 0 01.333 1.42z" fill="#2b3332"/><circle cx="22.263" cy="24.312" r=".632" fill="#e3e5e5"/><path d="M24.009 10.136c-.591-.787 4.337-5.831 5.884-6.157.622 0-1.868 3.744-4.67 7.487-.029-.471-.378-.919-1.214-1.33z" fill="#d84459"/><path d="M20.26 13.72c1.31-2.113 2.957-3.97 3.749-3.584.836.411 1.185.859 1.214 1.33a119.346 119.346 0 01-2.864 3.681c-.608-1.115-1.321-1.496-2.1-1.428z" fill="#505957"/><path d="M20.26 13.72c.778-.07 1.491.312 2.1 1.427-1.771 2.179-3.263 3.807-3.673 3.807-.849-.415.169-2.971 1.573-5.235z" fill="#d84459"/></svg>
